P3
16 16
255
150 200 255 150 200 255 255 255 255 255 255 255 255 255 255 150 200 255 150 200 255 150 200 255 150 200 255 150 200 255 150 200 255 150 200 255 150 200 255 150 200 255 150 200 255 150 200 255 
100 50 0 150 200 255 255 255 255 255 255 255 255 255 255 255 0 0 150 200 255 150 200 255 150 200 255 150 200 255 150 200 255 150 200 255 150 200 255 150 200 255 150 200 255 150 200 255 
100 50 0 100 50 0 0 0 255 255 255 255 255 0 0 255 0 0 255 0 0 150 200 255 150 200 255 100 50 0 100 50 0 100 50 0 150 200 255 150 200 255 150 200 255 150 200 255 
100 50 0 100 50 0 0 0 255 0 0 255 255 0 0 255 0 0 255 0 0 255 0 0 150 200 255 100 50 0 255 200 150 255 200 150 100 50 0 255 0 0 150 200 255 150 200 255 
100 50 0 100 50 0 0 0 255 0 0 255 0 0 255 255 0 0 255 0 0 255 0 0 255 200 150 255 200 150 100 50 0 100 50 0 100 50 0 255 0 0 255 0 0 150 200 255 
150 200 255 150 200 255 0 0 255 0 0 255 255 255 0 0 0 255 0 0 255 0 0 255 255 200 150 255 200 150 100 50 0 255 200 150 100 50 0 255 0 0 255 0 0 150 200 255 
150 200 255 150 200 255 0 0 255 0 0 255 0 0 255 0 0 255 255 0 0 255 0 0 255 200 150 255 200 150 255 200 150 255 200 150 255 200 150 255 0 0 255 0 0 150 200 255 
150 200 255 150 200 255 0 0 255 0 0 255 0 0 255 0 0 255 255 0 0 255 0 0 255 200 150 255 200 150 255 200 150 255 200 150 255 200 150 255 0 0 255 0 0 150 200 255 
150 200 255 150 200 255 0 0 255 0 0 255 255 255 0 0 0 255 0 0 255 255 0 0 255 200 150 100 50 0 255 200 150 100 50 0 100 50 0 255 0 0 255 0 0 150 200 255 
100 50 0 100 50 0 0 0 255 255 255 255 0 0 255 255 0 0 255 0 0 150 200 255 255 200 150 100 50 0 100 50 0 255 200 150 255 200 150 255 0 0 150 200 255 150 200 255 
100 50 0 100 50 0 255 255 255 255 255 255 255 0 0 255 0 0 255 0 0 150 200 255 255 200 150 100 50 0 255 200 150 255 200 150 150 200 255 255 0 0 150 200 255 150 200 255 
100 50 0 100 50 0 255 255 255 255 255 255 255 0 0 255 0 0 255 0 0 150 200 255 150 200 255 100 50 0 255 200 150 255 200 150 150 200 255 255 0 0 150 200 255 150 200 255 
100 50 0 150 200 255 150 200 255 150 200 255 255 255 255 255 0 0 150 200 255 150 200 255 150 200 255 150 200 255 255 200 150 150 200 255 150 200 255 150 200 255 150 200 255 150 200 255 
150 200 255 150 200 255 150 200 255 150 200 255 255 255 255 150 200 255 150 200 255 150 200 255 150 200 255 150 200 255 150 200 255 150 200 255 150 200 255 150 200 255 150 200 255 150 200 255 
150 200 255 150 200 255 150 200 255 150 200 255 150 200 255 150 200 255 150 200 255 150 200 255 150 200 255 150 200 255 150 200 255 150 200 255 150 200 255 150 200 255 150 200 255 150 200 255 
150 200 255 150 200 255 150 200 255 150 200 255 150 200 255 150 200 255 150 200 255 150 200 255 150 200 255 150 200 255 150 200 255 150 200 255 150 200 255 150 200 255 150 200 255 150 200 255 
