P3
16 16
255
255 255 255 255 255 255 255 255 255 255 255 255 255 255 255 255 255 255 255 255 255 255 255 255 255 255 255 255 255 255 255 255 255 255 255 255 255 255 255 255 255 255 255 255 255 255 255 255 
255 255 255 255 255 255 255 255 255 255 255 255 255 255 255 255 255 255 255 255 255 255 255 255 255 255 255 255 255 255 255 255 255 255 255 255 255 255 255 255 255 255 255 255 255 255 255 255 
255 255 255 255 255 255 255 255 255 255 255 255 255 255 255 110 156 204 110 156 204 255 255 255 255 255 255 255 255 255 255 255 255 255 255 255 255 255 255 255 255 255 177 192 197 255 255 255 
255 255 255 255 255 255 255 255 255 129 0 56 78 125 195 147 201 227 147 201 227 58 100 163 129 0 56 78 6 24 78 6 24 78 6 24 78 6 24 78 6 24 78 6 24 175 198 205 
255 255 255 255 255 255 165 17 41 201 11 0 110 156 204 255 255 255 147 201 227 110 156 204 165 17 41 201 11 0 201 11 0 201 11 0 165 17 41 129 0 56 78 6 24 175 198 205 
255 255 255 165 17 41 201 11 0 201 11 0 110 156 204 255 255 255 147 201 227 110 156 204 165 17 41 201 11 0 201 11 0 201 11 0 129 0 56 78 6 24 78 6 24 175 198 205 
255 255 255 165 17 41 221 103 85 201 11 0 110 156 204 147 201 227 147 201 227 110 156 204 165 17 41 201 11 0 201 11 0 201 11 0 129 0 56 255 255 255 175 198 205 175 198 205 
255 255 255 201 11 0 221 103 85 201 11 0 110 156 204 147 201 227 147 201 227 110 156 204 165 17 41 201 11 0 201 11 0 201 11 0 97 12 49 255 255 255 175 198 205 175 198 205 
255 255 255 201 11 0 221 103 85 201 11 0 78 125 195 147 201 227 147 201 227 58 100 163 165 17 41 201 11 0 201 11 0 201 11 0 97 12 49 97 12 49 78 6 24 175 198 205 
255 255 255 201 11 0 221 103 85 201 11 0 201 11 0 78 125 195 58 100 163 165 17 41 201 11 0 201 11 0 201 11 0 165 17 41 129 0 56 129 0 56 78 6 24 175 198 205 
255 255 255 255 255 255 201 11 0 221 103 85 201 11 0 201 11 0 201 11 0 201 11 0 201 11 0 165 17 41 129 0 56 129 0 56 129 0 56 129 0 56 78 6 24 175 198 205 
255 255 255 255 255 255 255 255 255 129 0 56 201 11 0 129 0 56 129 0 56 97 12 49 78 6 24 78 6 24 78 6 24 78 6 24 78 6 24 78 6 24 78 6 24 175 198 205 
255 255 255 255 255 255 255 255 255 255 255 255 255 255 255 221 103 85 201 11 0 201 11 0 201 11 0 129 0 56 97 12 49 78 6 24 255 255 255 255 255 255 175 198 205 175 198 205 
255 255 255 255 255 255 255 255 255 255 255 255 255 255 255 255 255 255 221 103 85 129 0 56 97 12 49 78 6 24 78 6 24 255 255 255 255 255 255 255 255 255 175 198 205 255 255 255 
255 255 255 255 255 255 255 255 255 255 255 255 255 255 255 255 255 255 255 255 255 255 255 255 255 255 255 255 255 255 255 255 255 255 255 255 255 255 255 255 255 255 255 255 255 255 255 255 
255 255 255 255 255 255 255 255 255 255 255 255 255 255 255 255 255 255 255 255 255 255 255 255 255 255 255 255 255 255 255 255 255 255 255 255 255 255 255 255 255 255 255 255 255 255 255 255 
