P3
16 16
255
150 200 255 150 200 255 150 200 255 150 200 255 150 200 255 150 200 255 200 200 200 200 200 200 200 200 200 150 200 255 150 200 255 150 200 255 150 200 255 150 200 255 150 200 255 150 200 255
150 200 255 150 200 255 150 200 255 150 200 255 150 200 255 200 200 200 200 200 200 200 200 200 200 200 200 200 200 200 150 200 255 150 200 255 150 200 255 150 200 255 150 200 255 150 200 255
150 200 255 150 200 255 150 200 255 150 200 255 150 200 255 255 255 100 255 255 100 255 255 100 255 255 100 255 255 100 150 200 255 150 200 255 150 200 255 150 200 255 150 200 255 150 200 255
150 200 255 150 200 255 150 200 255 150 200 255 255 255 100 255 255 100 255 255 100 255 255 100 255 255 100 255 255 100 255 255 100 150 200 255 150 200 255 255 255 0 150 200 255 150 200 255
150 200 255 150 200 255 150 200 255 150 200 255 255 255 100 255 255 100 255 200 150 0 100 255 255 200 150 255 255 100 255 255 100 150 200 255 255 255 0 255 255 0 255 255 0 150 200 255
150 200 255 150 200 255 150 200 255 150 200 255 255 255 100 255 255 100 255 200 150 255 200 150 255 200 150 255 255 100 255 255 100 150 200 255 150 200 255 255 255 0 150 200 255 150 200 255
150 200 255 150 200 255 150 200 255 150 200 255 150 200 255 255 255 100 255 255 100 255 255 100 255 255 100 255 255 100 150 200 255 150 200 255 150 200 255 150 200 255 150 200 255 150 200 255
150 200 255 150 200 255 150 200 255 150 200 255 150 200 255 150 200 255 100 220 220 255 255 255 100 220 220 150 200 255 150 200 255 150 200 255 150 200 255 150 200 255 150 200 255 150 200 255
150 200 255 150 200 255 150 200 255 150 200 255 150 200 255 100 220 220 100 220 220 100 220 220 100 220 220 100 220 220 150 200 255 150 200 255 150 200 255 150 200 255 150 200 255 150 200 255
150 200 255 150 200 255 150 200 255 150 200 255 255 200 150 100 220 220 100 220 220 100 220 220 100 220 220 100 220 220 255 200 150 150 200 255 150 200 255 150 200 255 150 200 255 150 200 255
150 200 255 150 200 255 150 200 255 150 200 255 150 200 255 100 220 220 100 220 220 100 220 220 100 220 220 100 220 220 150 200 255 150 200 255 150 200 255 150 200 255 150 200 255 150 200 255
150 200 255 150 200 255 150 200 255 150 200 255 100 220 220 100 220 220 100 220 220 100 220 220 100 220 220 100 220 220 100 220 220 150 200 255 150 200 255 150 200 255 150 200 255 150 200 255
150 200 255 150 200 255 150 200 255 100 220 220 100 220 220 100 220 220 100 220 220 100 220 220 100 220 220 100 220 220 100 220 220 100 220 220 150 200 255 150 200 255 150 200 255 150 200 255
150 200 255 150 200 255 100 220 220 100 220 220 100 220 220 100 220 220 100 220 220 100 220 220 100 220 220 100 220 220 100 220 220 100 220 220 100 220 220 150 200 255 150 200 255 150 200 255
150 200 255 100 220 220 100 220 220 100 220 220 100 220 220 100 220 220 100 220 220 100 220 220 100 220 220 100 220 220 100 220 220 100 220 220 100 220 220 100 220 220 150 200 255 150 200 255
150 200 255 150 200 255 150 200 255 150 200 255 150 200 255 200 200 200 200 200 200 150 200 255 200 200 200 200 200 200 150 200 255 150 200 255 150 200 255 150 200 255 150 200 255 150 200 255
